X: 25166
T: Major David Manson
R: reel
M: 4/4
K: Dmixolydian
|D2FE FDDF|A2dA FDDF|G2BG FAFD|F2GF ECCE|
FDFE FDDF|A2dA FDDF|G2BG FAFD|GEEA D3A||
d2Ad cAFG|B2AG FED2|BAF2 G2A2|D2FD ECCE|
d2Ad cAFG|B2AG FEDF|G2BG FAFD|GEEA D3A||
DDDF ABAF|A2d^c BdAF|G2BG FAFD|F2GF ECCE|
DDDF ABAF|A2d^c BdAF|G2BG FAFD|GEEA D3A||
d2A2 dAAd|BGGB AFD2|BAF2 G2A2|D2FD ECCE|
d2A2 dAAd|BGGB AFD2|G2BG FAFD|GEEA D3A||

